src/platforms/atari.svg

<svg width="24" height="24" viewBox="0 0 24 24" fill="none" xmlns="http://www.w3.org/2000/svg">
<mask id="mask0_1_5" style="mask-type:alpha" maskUnits="userSpaceOnUse" x="0" y="0" width="24" height="24">
<path d="M0 21.653C0 21.653 3.154 21.298 5.612 19.269C7.951 17.339 8.797 15.677 9.382 13.793C9.966 11.908 10.053 7.37399 10.053 6.02899V2.34599H8.598V3.71099C8.574 5.75199 8.398 9.62899 7.463 12.155C5.203 18.242 0 18.775 0 18.775V21.653ZM24 21.653C24 21.653 20.846 21.298 18.39 19.269C16.048 17.339 15.203 15.677 14.618 13.793C14.035 11.908 13.947 7.37399 13.947 6.02899V2.34599H15.4L15.401 3.71099C15.425 5.75199 15.603 9.62899 16.539 12.155C18.797 18.242 23.999 18.775 23.999 18.775L24 21.653ZM10.659 2.34799H13.344V21.654H10.66L10.659 2.34799Z" fill="black"/>
</mask>
<g mask="url(#mask0_1_5)">
<rect x="-7" y="-6" width="37" height="37" fill="white"/>
</g>
</svg>

<svg xmlns="http://www.w3.org/2000/svg" width="24" height="24" fill="none"><mask id="a" width="24" height="24" x="0" y="0" maskUnits="userSpaceOnUse" style="mask-type:alpha"><path fill="#000" d="M0 21.653s3.154-.355 5.612-2.384c2.339-1.93 3.185-3.592 3.77-5.476.584-1.885.671-6.419.671-7.764V2.346H8.598v1.365c-.024 2.041-.2 5.918-1.135 8.444C5.203 18.242 0 18.775 0 18.775v2.878Zm24 0s-3.154-.355-5.61-2.384c-2.342-1.93-3.187-3.592-3.772-5.476-.583-1.885-.671-6.419-.671-7.764V2.346H15.4l.001 1.365c.024 2.041.202 5.918 1.138 8.444 2.258 6.087 7.46 6.62 7.46 6.62L24 21.653ZM10.659 2.348h2.685v19.306H10.66l-.001-19.306Z"/></mask><g mask="url(#a)"><path fill="#000" d="M-7-6h37v37H-7z"/></g></svg>
